exports/share-of-the-population-with-basic-numeracy-skills-by-birth-decade_v1_850x600.svg

<svg xmlns="http://www.w3.org/2000/svg" version="1.1" style="background-color:#fff;-webkit-font-smoothing:antialiased" width="850" height="600" font-family="'Helvetica Neue',Helvetica,Arial,sans-serif" font-size="18" text-rendering="optimizeLegibility"><g class="ChartTab"><g class="HeaderView"><g opacity=".8" transform="matrix(.31 0 0 .31 770 15)"><a xmlns:xlink="http://www.w3.org/1999/xlink" xlink:href="https://ourworldindata.org" target="_blank"><g><path fill="#1B2543" d="M0 0h211.2v130.1H0z"/><path fill="#E63912" d="M0 112.2h211.2v17.9H0z"/><g><path fill="none" d="M1.2 12.3h210.2v99.2H1.2z"/><path fill="#FFF" d="M37.8 32.2c0 12.7-7.7 19.4-17.1 19.4-9.7 0-16.6-7.5-16.6-18.7 0-11.7 7.3-19.3 17.1-19.3 10.1.1 16.6 7.7 16.6 18.6zm-28.6.6c0 7.9 4.3 14.9 11.8 14.9 7.5 0 11.8-6.9 11.8-15.3 0-7.3-3.8-14.9-11.8-14.9-7.9 0-11.8 7.3-11.8 15.3zM62.7 43.8c0 2.7.1 5.1.2 7.2h-4.3l-.3-4.3h-.1c-1.3 2.1-4 4.9-8.8 4.9-4.2 0-9.1-2.3-9.1-11.6V24.6h4.8v14.6c0 5 1.5 8.4 5.9 8.4 3.2 0 5.5-2.2 6.3-4.4.3-.7.4-1.6.4-2.5V24.6h4.8v19.2zM67.3 32.8c0-3.1-.1-5.8-.2-8.2h4.2l.2 5.2h.2c1.2-3.5 4.1-5.8 7.3-5.8.5 0 .9.1 1.4.2v4.5c-.5-.1-1-.2-1.6-.2-3.4 0-5.8 2.6-6.5 6.2-.1.7-.2 1.4-.2 2.2V51h-4.8V32.8zM95.4 51L86 14.2h5l4.4 18.6c1.1 4.6 2.1 9.2 2.7 12.7h.1c.6-3.7 1.8-8 3-12.8l4.9-18.5h5l4.5 18.7c1 4.4 2 8.7 2.6 12.6h.1c.8-4 1.8-8.1 3-12.7l4.9-18.5h4.9L120.6 51h-5L111 31.9c-1.1-4.7-1.9-8.3-2.4-12h-.1c-.7 3.7-1.5 7.3-2.8 12L100.4 51h-5zM154.9 37.6c0 9.8-6.8 14-13.2 14-7.2 0-12.7-5.2-12.7-13.6 0-8.8 5.8-14 13.1-14 7.7 0 12.8 5.5 12.8 13.6zm-21 .3c0 5.8 3.3 10.1 8 10.1 4.6 0 8-4.3 8-10.3 0-4.5-2.2-10.1-7.9-10.1s-8.1 5.2-8.1 10.3zM158.2 32.8c0-3.1-.1-5.8-.2-8.2h4.2l.2 5.2h.2c1.2-3.5 4.1-5.8 7.3-5.8.5 0 .9.1 1.4.2v4.5c-.5-.1-1-.2-1.6-.2-3.4 0-5.8 2.6-6.5 6.2-.1.7-.2 1.4-.2 2.2V51h-4.8V32.8zM173.5 12.3h4.8V51h-4.8V12.3zM206.5 12.3v31.9c0 2.3.1 5 .2 6.8h-4.3l-.2-4.6h-.2c-1.5 2.9-4.7 5.2-9 5.2-6.4 0-11.3-5.4-11.3-13.4-.1-8.8 5.4-14.2 11.9-14.2 4 0 6.8 1.9 8 4h.1V12.3h4.8zm-4.8 23.1c0-.6-.1-1.4-.2-2a7 7 0 00-6.9-5.6c-5 0-7.9 4.4-7.9 10.2 0 5.3 2.6 9.8 7.8 9.8 3.2 0 6.2-2.1 7.1-5.7.2-.7.2-1.3.2-2.1v-4.6zM42.8 64c.1 1.6-1.1 2.9-3.1 2.9-1.7 0-2.9-1.3-2.9-2.9 0-1.7 1.3-3 3-3 1.9 0 3 1.3 3 3zm-5.4 33.8V71.4h4.8v26.4h-4.8zM47.5 78.6c0-2.7-.1-5-.2-7.1h4.3l.3 4.4h.1c1.3-2.5 4.4-5 8.8-5 3.7 0 9.4 2.2 9.4 11.2v15.8h-4.8V82.6c0-4.3-1.6-7.8-6.1-7.8-3.2 0-5.6 2.2-6.5 4.9-.2.6-.3 1.4-.3 2.2v15.9h-4.8V78.6zM84 61.6c2.9-.4 6.3-.8 10.1-.8 6.8 0 11.7 1.6 14.9 4.6 3.3 3 5.2 7.3 5.2 13.2 0 6-1.9 10.9-5.3 14.3-3.4 3.4-9.1 5.3-16.3 5.3-3.4 0-6.2-.2-8.6-.4V61.6zm4.8 32.5c1.2.2 3 .3 4.8.3 10.2 0 15.7-5.7 15.7-15.6.1-8.7-4.9-14.2-14.9-14.2-2.5 0-4.3.2-5.6.5v29zM132.1 97.8l-.4-3.3h-.2a9.79 9.79 0 01-8.1 3.9c-5.4 0-8.1-3.8-8.1-7.6 0-6.4 5.7-9.9 15.9-9.8v-.5c0-2.2-.6-6.1-6-6.1-2.5 0-5 .8-6.9 2l-1.1-3.2c2.2-1.4 5.4-2.3 8.7-2.3 8.1 0 10.1 5.5 10.1 10.8v9.9c0 2.3.1 4.5.4 6.3h-4.3zm-.7-13.4c-5.3-.1-11.2.8-11.2 5.9 0 3.1 2.1 4.6 4.5 4.6 3.4 0 5.6-2.2 6.4-4.4.2-.5.3-1 .3-1.5v-4.6zM146.6 63.9v7.6h6.9v3.7h-6.9v14.2c0 3.3.9 5.1 3.6 5.1 1.3 0 2.2-.2 2.8-.3l.2 3.6c-.9.4-2.4.7-4.3.7-2.2 0-4-.7-5.2-2-1.4-1.4-1.9-3.8-1.9-6.9V75.1h-4.1v-3.7h4.1v-6.3l4.8-1.2zM171.4 97.8l-.4-3.3h-.2a9.79 9.79 0 01-8.1 3.9c-5.4 0-8.1-3.8-8.1-7.6 0-6.4 5.7-9.9 15.9-9.8v-.5c0-2.2-.6-6.1-6-6.1-2.5 0-5 .8-6.9 2l-1.1-3.2c2.2-1.4 5.4-2.3 8.7-2.3 8.1 0 10.1 5.5 10.1 10.8v9.9c0 2.3.1 4.5.4 6.3h-4.3zm-.7-13.4c-5.3-.1-11.2.8-11.2 5.9 0 3.1 2.1 4.6 4.5 4.6 3.4 0 5.6-2.2 6.4-4.4.2-.5.3-1 .3-1.5v-4.6z"/></g></g></a></g><a href="https://ourworldindata.org/grapher/share-of-the-population-with-basic-numeracy-skills-by-birth-decade" target="_blank"><text font-size="25.2" x="15" y="35.2" fill="#555"><tspan x="15" y="35.16">Share of the population with basic numeracy skills by birth decade</tspan></text></a><text font-size="14.4" x="15" y="53.7" fill="#666"><tspan x="15" y="53.72">The shown estimates of basic numeracy are based on the share of people who stated their age correctly. The</tspan><tspan x="15" y="69.56">shown &quot;ABCC-index&quot; is based on the finding that in population with lower numeracy skills &quot;age heaping&quot; occurs</tspan><tspan x="15" y="85.4">more frequently. &quot;Age heaping&quot; refers to the higher frequency of attractive numbers (i.e. rounded numbers which are</tspan><tspan x="15" y="101.24">multiples of five), which occurs in populations with lower numeracy skills.</tspan></text></g><g class="LineChart"><defs><clipPath id="a"><path d="M51.63 0h830v866.8h-830z"/></clipPath></defs><g class="AxisBoxView"><g class="HorizontalAxis" fill="#666" text-anchor="middle" font-size="16.2"><text x="61.6" y="556.5">1500</text><text x="205.8" y="556.5">1600</text><text x="350" y="556.5">1700</text><text x="494.2" y="556.5">1800</text><text x="638.4" y="556.5">1900</text><text x="724.9" y="556.5">1960</text></g><g class="VerticalAxis" fill="#666" dominant-baseline="middle" text-anchor="end" font-size="16.2"><text x="56.63" y="535.3">0%</text><text x="56.63" y="452.9">20%</text><text x="56.63" y="370.4">40%</text><text x="56.63" y="288">60%</text><text x="56.63" y="205.5">80%</text><text x="56.63" y="123.1">100%</text></g><g class="AxisGridLines"><path stroke="#ccc" d="M61.63 535.3H724.9"/><path stroke="#ddd" stroke-dasharray="3,2" d="M61.63 452.9H724.9M61.63 370.4H724.9M61.63 288H724.9M61.63 205.5H724.9M61.63 123.1H724.9"/></g><g class="AxisGridLines" stroke="#ddd" stroke-dasharray="3,2"><path d="M61.6 535.3V123.1M205.8 535.3V123.1M350 535.3V123.1M494.2 535.3V123.1M638.4 535.3V123.1"/></g></g><g clip-path="url(#a)"><g class="HeightedLegend clickable"><g class="legendMark"><path fill="#f6a324" d="M734.9 121.85h10v2.5h-10z"/><text font-size="14.4" x="749.9" y="127.4" fill="#333"><tspan x="749.9" y="127.42">Germany</tspan></text></g><g class="legendMark"><path fill="#34983f" d="M734.9 136.25h10v2.5h-10z"/><text font-size="14.4" x="749.9" y="141.8" fill="#333"><tspan x="749.9" y="141.82">Japan</tspan></text></g><g class="legendMark"><path fill="#ca2628" d="M734.9 150.65h10v2.5h-10z"/><text font-size="14.4" x="749.9" y="156.2" fill="#333"><tspan x="749.9" y="156.22">Spain</tspan></text></g><g class="legendMark"><path fill="#3360a9" d="M734.9 211.45h10v2.5h-10z"/><text font-size="14.4" x="749.9" y="217" fill="#333"><tspan x="749.9" y="217.02">Burkina Faso</tspan></text></g></g><g class="Lines"><g class="key-Burkina-Faso_0"><path stroke="#3360a9" stroke-linecap="round" d="M638 251l15 36 14-33 15-14 14-22 15-5" fill="none" stroke-width="1.5"/><g fill="#3360a9"><circle cx="638" cy="251" r="2"/><circle cx="653" cy="287" r="2"/><circle cx="667" cy="254" r="2"/><circle cx="682" cy="240" r="2"/><circle cx="696" cy="218" r="2"/><circle cx="711" cy="213" r="2"/></g></g><g class="key-Germany_0"><path stroke="#f6a324" stroke-linecap="round" d="M62 370l173-156 72-4 57 9 15 14 14-64 15 7 14-9 15-10 14 13 14-37h15l14 40 44-46 14 1 14-3 15 1 14-2 15-1h14l14 1 15-1" fill="none" stroke-width="1.5"/><g fill="#f6a324"><circle cx="62" cy="370" r="2"/><circle cx="235" cy="214" r="2"/><circle cx="307" cy="210" r="2"/><circle cx="364" cy="219" r="2"/><circle cx="379" cy="233" r="2"/><circle cx="393" cy="169" r="2"/><circle cx="408" cy="176" r="2"/><circle cx="422" cy="167" r="2"/><circle cx="437" cy="157" r="2"/><circle cx="451" cy="170" r="2"/><circle cx="465" cy="133" r="2"/><circle cx="480" cy="133" r="2"/><circle cx="494" cy="173" r="2"/><circle cx="538" cy="127" r="2"/><circle cx="552" cy="128" r="2"/><circle cx="566" cy="125" r="2"/><circle cx="581" cy="126" r="2"/><circle cx="595" cy="124" r="2"/><circle cx="610" cy="123" r="2"/><circle cx="624" cy="123" r="2"/><circle cx="638" cy="124" r="2"/><circle cx="653" cy="123" r="2"/></g></g><g class="key-Spain_0"><path stroke="#ca2628" stroke-linecap="round" d="M91 391l72-45 72-99 72 29 57-77 15 15 159-40 14 2 14-1 15-7 14-9 15-10 14-9 14-2 15-8 14-4h15l14 14" fill="none" stroke-width="1.5"/><g fill="#ca2628"><circle cx="91" cy="391" r="2"/><circle cx="163" cy="346" r="2"/><circle cx="235" cy="247" r="2"/><circle cx="307" cy="276" r="2"/><circle cx="364" cy="199" r="2"/><circle cx="379" cy="214" r="2"/><circle cx="538" cy="174" r="2"/><circle cx="552" cy="176" r="2"/><circle cx="566" cy="175" r="2"/><circle cx="581" cy="168" r="2"/><circle cx="595" cy="159" r="2"/><circle cx="610" cy="149" r="2"/><circle cx="624" cy="140" r="2"/><circle cx="638" cy="138" r="2"/><circle cx="653" cy="130" r="2"/><circle cx="667" cy="126" r="2"/><circle cx="682" cy="126" r="2"/><circle cx="696" cy="140" r="2"/></g></g><g class="key-Japan_0"><path stroke="#34983f" stroke-linecap="round" d="M191 201l303-69 15-9 72 2 14 5 15-6 14 4 14-5 15 5 14-4 15-1h14l15 1 14 3" fill="none" stroke-width="1.5"/><g fill="#34983f"><circle cx="191" cy="201" r="2"/><circle cx="494" cy="132" r="2"/><circle cx="509" cy="123" r="2"/><circle cx="581" cy="125" r="2"/><circle cx="595" cy="130" r="2"/><circle cx="610" cy="124" r="2"/><circle cx="624" cy="128" r="2"/><circle cx="638" cy="123" r="2"/><circle cx="653" cy="128" r="2"/><circle cx="667" cy="124" r="2"/><circle cx="682" cy="123" r="2"/><circle cx="696" cy="123" r="2"/><circle cx="711" cy="124" r="2"/><circle cx="725" cy="127" r="2"/></g></g></g></g></g><g class="SourcesFooter" fill="#777"><g class="clickable" fill="#777"><text font-size="12.6" x="15" y="581.6"><tspan x="15" y="581.58">Source: Numeracy (total) (Baten 2015)</tspan></text></g><text font-size="12.6" x="602" y="581.6"><tspan x="602.03" y="581.58"><a target="_blank" href="https://ourworldindata.org/literacy/" fill="#777">OurWorldInData.org/literacy/</a> • <a href="http://creativecommons.org/licenses/by-sa/4.0/deed.en_US" target="_blank" fill="#777">CC BY-SA</a></tspan></text></g></g></svg>

<svg xmlns="http://www.w3.org/2000/svg" version="1.1" style="font-family: 'Helvetica Neue', Helvetica, Arial, sans-serif; font-size: 18px; background-color: white; text-rendering: optimizeLegibility; -webkit-font-smoothing: antialiased;" width="850" height="600"><g class="ChartTab"><g class="HeaderView"><g opacity="0.8" transform="translate(770, 15) scale(0.31)"><a xmlns:xlink="http://www.w3.org/1999/xlink" xlink:href="https://ourworldindata.org" target="_blank"><g><rect x="0" y="0" fill="#1B2543" width="211.2" height="130.1"/><rect x="0" y="112.2" fill="#E63912" width="211.2" height="17.9"/><g><rect x="1.2" y="12.3" fill="none" width="210.2" height="99.2"/><path fill="#FFFFFF" d="M37.8,32.2c0,12.7-7.7,19.4-17.1,19.4c-9.7,0-16.6-7.5-16.6-18.7c0-11.7,7.3-19.3,17.1-19.3 C31.3,13.7,37.8,21.3,37.8,32.2z M9.2,32.8c0,7.9,4.3,14.9,11.8,14.9c7.5,0,11.8-6.9,11.8-15.3c0-7.3-3.8-14.9-11.8-14.9 C13.1,17.5,9.2,24.8,9.2,32.8z"/><path fill="#FFFFFF" d="M62.7,43.8c0,2.7,0.1,5.1,0.2,7.2h-4.3l-0.3-4.3h-0.1c-1.3,2.1-4,4.9-8.8,4.9c-4.2,0-9.1-2.3-9.1-11.6 V24.6h4.8v14.6c0,5,1.5,8.4,5.9,8.4c3.2,0,5.5-2.2,6.3-4.4c0.3-0.7,0.4-1.6,0.4-2.5V24.6h4.8V43.8z"/><path fill="#FFFFFF" d="M67.3,32.8c0-3.1-0.1-5.8-0.2-8.2h4.2l0.2,5.2h0.2c1.2-3.5,4.1-5.8,7.3-5.8c0.5,0,0.9,0.1,1.4,0.2v4.5 c-0.5-0.1-1-0.2-1.6-0.2c-3.4,0-5.8,2.6-6.5,6.2c-0.1,0.7-0.2,1.4-0.2,2.2V51h-4.8V32.8z"/><path fill="#FFFFFF" d="M95.4,51l-9.4-36.8h5l4.4,18.6c1.1,4.6,2.1,9.2,2.7,12.7h0.1c0.6-3.7,1.8-8,3-12.8l4.9-18.5h5l4.5,18.7 c1,4.4,2,8.7,2.6,12.6h0.1c0.8-4,1.8-8.1,3-12.7l4.9-18.5h4.9L120.6,51h-5L111,31.9c-1.1-4.7-1.9-8.3-2.4-12h-0.1 c-0.7,3.7-1.5,7.3-2.8,12L100.4,51H95.4z"/><path fill="#FFFFFF" d="M154.9,37.6c0,9.8-6.8,14-13.2,14c-7.2,0-12.7-5.2-12.7-13.6c0-8.8,5.8-14,13.1-14 C149.8,24,154.9,29.5,154.9,37.6z M133.9,37.9c0,5.8,3.3,10.1,8,10.1c4.6,0,8-4.3,8-10.3c0-4.5-2.2-10.1-7.9-10.1 C136.3,27.6,133.9,32.8,133.9,37.9z"/><path fill="#FFFFFF" d="M158.2,32.8c0-3.1-0.1-5.8-0.2-8.2h4.2l0.2,5.2h0.2c1.2-3.5,4.1-5.8,7.3-5.8c0.5,0,0.9,0.1,1.4,0.2v4.5 c-0.5-0.1-1-0.2-1.6-0.2c-3.4,0-5.8,2.6-6.5,6.2c-0.1,0.7-0.2,1.4-0.2,2.2V51h-4.8V32.8z"/><path fill="#FFFFFF" d="M173.5,12.3h4.8V51h-4.8V12.3z"/><path fill="#FFFFFF" d="M206.5,12.3v31.9c0,2.3,0.1,5,0.2,6.8h-4.3l-0.2-4.6H202c-1.5,2.9-4.7,5.2-9,5.2 c-6.4,0-11.3-5.4-11.3-13.4c-0.1-8.8,5.4-14.2,11.9-14.2c4,0,6.8,1.9,8,4h0.1V12.3H206.5z M201.7,35.4c0-0.6-0.1-1.4-0.2-2 c-0.7-3.1-3.3-5.6-6.9-5.6c-5,0-7.9,4.4-7.9,10.2c0,5.3,2.6,9.8,7.8,9.8c3.2,0,6.2-2.1,7.1-5.7c0.2-0.7,0.2-1.3,0.2-2.1V35.4z"/><path fill="#FFFFFF" d="M42.8,64c0.1,1.6-1.1,2.9-3.1,2.9c-1.7,0-2.9-1.3-2.9-2.9c0-1.7,1.3-3,3-3C41.7,61,42.8,62.3,42.8,64z M37.4,97.8V71.4h4.8v26.4H37.4z"/><path fill="#FFFFFF" d="M47.5,78.6c0-2.7-0.1-5-0.2-7.1h4.3l0.3,4.4h0.1c1.3-2.5,4.4-5,8.8-5c3.7,0,9.4,2.2,9.4,11.2v15.8h-4.8 V82.6c0-4.3-1.6-7.8-6.1-7.8c-3.2,0-5.6,2.2-6.5,4.9c-0.2,0.6-0.3,1.4-0.3,2.2v15.9h-4.8V78.6z"/><path fill="#FFFFFF" d="M84,61.6c2.9-0.4,6.3-0.8,10.1-0.8c6.8,0,11.7,1.6,14.9,4.6c3.3,3,5.2,7.3,5.2,13.2c0,6-1.9,10.9-5.3,14.3 c-3.4,3.4-9.1,5.3-16.3,5.3c-3.4,0-6.2-0.2-8.6-0.4V61.6z M88.8,94.1c1.2,0.2,3,0.3,4.8,0.3c10.2,0,15.7-5.7,15.7-15.6 c0.1-8.7-4.9-14.2-14.9-14.2c-2.5,0-4.3,0.2-5.6,0.5V94.1z"/><path fill="#FFFFFF" d="M132.1,97.8l-0.4-3.3h-0.2c-1.5,2.1-4.3,3.9-8.1,3.9c-5.4,0-8.1-3.8-8.1-7.6c0-6.4,5.7-9.9,15.9-9.8v-0.5 c0-2.2-0.6-6.1-6-6.1c-2.5,0-5,0.8-6.9,2l-1.1-3.2c2.2-1.4,5.4-2.3,8.7-2.3c8.1,0,10.1,5.5,10.1,10.8v9.9c0,2.3,0.1,4.5,0.4,6.3 H132.1z M131.4,84.4c-5.3-0.1-11.2,0.8-11.2,5.9c0,3.1,2.1,4.6,4.5,4.6c3.4,0,5.6-2.2,6.4-4.4c0.2-0.5,0.3-1,0.3-1.5V84.4z"/><path fill="#FFFFFF" d="M146.6,63.9v7.6h6.9v3.7h-6.9v14.2c0,3.3,0.9,5.1,3.6,5.1c1.3,0,2.2-0.2,2.8-0.3l0.2,3.6 c-0.9,0.4-2.4,0.7-4.3,0.7c-2.2,0-4-0.7-5.2-2c-1.4-1.4-1.9-3.8-1.9-6.9V75.1h-4.1v-3.7h4.1v-6.3L146.6,63.9z"/><path fill="#FFFFFF" d="M171.4,97.8l-0.4-3.3h-0.2c-1.5,2.1-4.3,3.9-8.1,3.9c-5.4,0-8.1-3.8-8.1-7.6c0-6.4,5.7-9.9,15.9-9.8v-0.5 c0-2.2-0.6-6.1-6-6.1c-2.5,0-5,0.8-6.9,2l-1.1-3.2c2.2-1.4,5.4-2.3,8.7-2.3c8.1,0,10.1,5.5,10.1,10.8v9.9c0,2.3,0.1,4.5,0.4,6.3 H171.4z M170.7,84.4c-5.3-0.1-11.2,0.8-11.2,5.9c0,3.1,2.1,4.6,4.5,4.6c3.4,0,5.6-2.2,6.4-4.4c0.2-0.5,0.3-1,0.3-1.5V84.4z"/></g></g></a></g><a href="https://ourworldindata.org/grapher/share-of-the-population-with-basic-numeracy-skills-by-birth-decade" target="_blank"><text font-size="25.20" x="15.0" y="35.2" fill="#555"><tspan x="15" y="35.160000000000004">Share of the population with basic numeracy skills by birth decade</tspan></text></a><text font-size="14.40" x="15.0" y="53.7" fill="#666"><tspan x="15" y="53.72">The shown estimates of basic numeracy are based on the share of people who stated their age correctly. The</tspan><tspan x="15" y="69.56">shown &quot;ABCC-index&quot; is based on the finding that in population with lower numeracy skills &quot;age heaping&quot; occurs</tspan><tspan x="15" y="85.4">more frequently. &quot;Age heaping&quot; refers to the higher frequency of attractive numbers (i.e. rounded numbers which are</tspan><tspan x="15" y="101.24000000000001">multiples of five), which occurs in populations with lower numeracy skills.</tspan></text></g><g class="LineChart"><defs><clipPath id="boundsClip-455"><rect x="51.634" y="0" width="830" height="866.8"></rect></clipPath></defs><g class="AxisBoxView"><g class="HorizontalAxis"><text x="61.6" y="556.5" fill="#666" text-anchor="middle" font-size="16.2">1500</text><text x="205.8" y="556.5" fill="#666" text-anchor="middle" font-size="16.2">1600</text><text x="350" y="556.5" fill="#666" text-anchor="middle" font-size="16.2">1700</text><text x="494.2" y="556.5" fill="#666" text-anchor="middle" font-size="16.2">1800</text><text x="638.4" y="556.5" fill="#666" text-anchor="middle" font-size="16.2">1900</text><text x="724.9" y="556.5" fill="#666" text-anchor="middle" font-size="16.2">1960</text></g><g class="VerticalAxis"><text x="56.63" y="535.3" fill="#666" dominant-baseline="middle" text-anchor="end" font-size="16.2">0%</text><text x="56.63" y="452.9" fill="#666" dominant-baseline="middle" text-anchor="end" font-size="16.2">20%</text><text x="56.63" y="370.4" fill="#666" dominant-baseline="middle" text-anchor="end" font-size="16.2">40%</text><text x="56.63" y="288" fill="#666" dominant-baseline="middle" text-anchor="end" font-size="16.2">60%</text><text x="56.63" y="205.5" fill="#666" dominant-baseline="middle" text-anchor="end" font-size="16.2">80%</text><text x="56.63" y="123.1" fill="#666" dominant-baseline="middle" text-anchor="end" font-size="16.2">100%</text></g><g class="AxisGridLines"><line x1="61.63" y1="535.3" x2="724.90" y2="535.3" stroke="#ccc"></line><line x1="61.63" y1="452.9" x2="724.90" y2="452.9" stroke="#ddd" stroke-dasharray="3,2"></line><line x1="61.63" y1="370.4" x2="724.90" y2="370.4" stroke="#ddd" stroke-dasharray="3,2"></line><line x1="61.63" y1="288" x2="724.90" y2="288" stroke="#ddd" stroke-dasharray="3,2"></line><line x1="61.63" y1="205.5" x2="724.90" y2="205.5" stroke="#ddd" stroke-dasharray="3,2"></line><line x1="61.63" y1="123.1" x2="724.90" y2="123.1" stroke="#ddd" stroke-dasharray="3,2"></line></g><g class="AxisGridLines"><line x1="61.6" y1="535.30" x2="61.6" y2="123.10" stroke="#ddd" stroke-dasharray="3,2"></line><line x1="205.8" y1="535.30" x2="205.8" y2="123.10" stroke="#ddd" stroke-dasharray="3,2"></line><line x1="350" y1="535.30" x2="350" y2="123.10" stroke="#ddd" stroke-dasharray="3,2"></line><line x1="494.2" y1="535.30" x2="494.2" y2="123.10" stroke="#ddd" stroke-dasharray="3,2"></line><line x1="638.4" y1="535.30" x2="638.4" y2="123.10" stroke="#ddd" stroke-dasharray="3,2"></line></g></g><g clip-path="url(#boundsClip-455)"><g class="HeightedLegend clickable"><g class="legendMark"><rect x="734.896" y="115.89999999999999" width="74.328" height="14.4" fill="#fff" opacity="0"></rect><rect x="734.896" y="121.85" width="10" height="2.5" fill="#f6a324"></rect><text font-size="14.40" x="749.9" y="127.4" fill="#333"><tspan x="749.896" y="127.41999999999999">Germany</tspan></text></g><g class="legendMark"><rect x="734.896" y="130.29999999999998" width="54.456" height="14.4" fill="#fff" opacity="0"></rect><rect x="734.896" y="136.24999999999997" width="10" height="2.5" fill="#34983f"></rect><text font-size="14.40" x="749.9" y="141.8" fill="#333"><tspan x="749.896" y="141.82">Japan</tspan></text></g><g class="legendMark"><rect x="734.896" y="144.7" width="52.008" height="14.4" fill="#fff" opacity="0"></rect><rect x="734.896" y="150.64999999999998" width="10" height="2.5" fill="#ca2628"></rect><text font-size="14.40" x="749.9" y="156.2" fill="#333"><tspan x="749.896" y="156.22">Spain</tspan></text></g><g class="legendMark"><rect x="734.896" y="205.5" width="100.10400000000001" height="14.4" fill="#fff" opacity="0"></rect><rect x="734.896" y="211.45" width="10" height="2.5" fill="#3360a9"></rect><text font-size="14.40" x="749.9" y="217.0" fill="#333"><tspan x="749.896" y="217.02">Burkina Faso</tspan></text></g></g><g class="Lines"><rect x="62" y="123" width="663" height="412" fill="rgba(255,255,255,0)" opacity="0"></rect><g class="key-Burkina-Faso_0"><path stroke="#3360a9" stroke-linecap="round" d="M638 251L653 287L667 254L682 240L696 218L711 213" fill="none" stroke-width="1.5"></path><g fill="#3360a9"><circle cx="638" cy="251" r="2"></circle><circle cx="653" cy="287" r="2"></circle><circle cx="667" cy="254" r="2"></circle><circle cx="682" cy="240" r="2"></circle><circle cx="696" cy="218" r="2"></circle><circle cx="711" cy="213" r="2"></circle></g></g><g class="key-Germany_0"><path stroke="#f6a324" stroke-linecap="round" d="M62 370L235 214L307 210L364 219L379 233L393 169L408 176L422 167L437 157L451 170L465 133L480 133L494 173L538 127L552 128L566 125L581 126L595 124L610 123L624 123L638 124L653 123" fill="none" stroke-width="1.5"></path><g fill="#f6a324"><circle cx="62" cy="370" r="2"></circle><circle cx="235" cy="214" r="2"></circle><circle cx="307" cy="210" r="2"></circle><circle cx="364" cy="219" r="2"></circle><circle cx="379" cy="233" r="2"></circle><circle cx="393" cy="169" r="2"></circle><circle cx="408" cy="176" r="2"></circle><circle cx="422" cy="167" r="2"></circle><circle cx="437" cy="157" r="2"></circle><circle cx="451" cy="170" r="2"></circle><circle cx="465" cy="133" r="2"></circle><circle cx="480" cy="133" r="2"></circle><circle cx="494" cy="173" r="2"></circle><circle cx="538" cy="127" r="2"></circle><circle cx="552" cy="128" r="2"></circle><circle cx="566" cy="125" r="2"></circle><circle cx="581" cy="126" r="2"></circle><circle cx="595" cy="124" r="2"></circle><circle cx="610" cy="123" r="2"></circle><circle cx="624" cy="123" r="2"></circle><circle cx="638" cy="124" r="2"></circle><circle cx="653" cy="123" r="2"></circle></g></g><g class="key-Spain_0"><path stroke="#ca2628" stroke-linecap="round" d="M91 391L163 346L235 247L307 276L364 199L379 214L538 174L552 176L566 175L581 168L595 159L610 149L624 140L638 138L653 130L667 126L682 126L696 140" fill="none" stroke-width="1.5"></path><g fill="#ca2628"><circle cx="91" cy="391" r="2"></circle><circle cx="163" cy="346" r="2"></circle><circle cx="235" cy="247" r="2"></circle><circle cx="307" cy="276" r="2"></circle><circle cx="364" cy="199" r="2"></circle><circle cx="379" cy="214" r="2"></circle><circle cx="538" cy="174" r="2"></circle><circle cx="552" cy="176" r="2"></circle><circle cx="566" cy="175" r="2"></circle><circle cx="581" cy="168" r="2"></circle><circle cx="595" cy="159" r="2"></circle><circle cx="610" cy="149" r="2"></circle><circle cx="624" cy="140" r="2"></circle><circle cx="638" cy="138" r="2"></circle><circle cx="653" cy="130" r="2"></circle><circle cx="667" cy="126" r="2"></circle><circle cx="682" cy="126" r="2"></circle><circle cx="696" cy="140" r="2"></circle></g></g><g class="key-Japan_0"><path stroke="#34983f" stroke-linecap="round" d="M191 201L494 132L509 123L581 125L595 130L610 124L624 128L638 123L653 128L667 124L682 123L696 123L711 124L725 127" fill="none" stroke-width="1.5"></path><g fill="#34983f"><circle cx="191" cy="201" r="2"></circle><circle cx="494" cy="132" r="2"></circle><circle cx="509" cy="123" r="2"></circle><circle cx="581" cy="125" r="2"></circle><circle cx="595" cy="130" r="2"></circle><circle cx="610" cy="124" r="2"></circle><circle cx="624" cy="128" r="2"></circle><circle cx="638" cy="123" r="2"></circle><circle cx="653" cy="128" r="2"></circle><circle cx="667" cy="124" r="2"></circle><circle cx="682" cy="123" r="2"></circle><circle cx="696" cy="123" r="2"></circle><circle cx="711" cy="124" r="2"></circle><circle cx="725" cy="127" r="2"></circle></g></g></g></g></g><g style="fill: #777;" class="SourcesFooter"><g style="fill: #777;" class="clickable"><text font-size="12.60" x="15.0" y="581.6"><tspan x="15" y="581.58">Source: Numeracy (total) (Baten 2015)</tspan></text></g><text font-size="12.60" x="602.0" y="581.6"><tspan x="602.0260000000001" y="581.58"><a target='_blank' style='fill: #777;' href='https://ourworldindata.org/literacy/'>OurWorldInData.org/literacy/</a> • <a style="fill: #777;" href="http://creativecommons.org/licenses/by-sa/4.0/deed.en_US" target="_blank">CC BY-SA</a></tspan></text></g></g></svg>
